X:1
T:Title
%%score ( 1 2 ) ( 3 4 )
L:1/8
Q:1/4=110
M:4/4
K:G
V:1 treble nm="Grand Piano, Soprano"
V:2 treble 
V:3 bass nm="Choir Pad, Bass"
V:4 bass 
V:1
 [B,D]2 [B,D]2 [B,G]2 [A,F]2 | [B,G]2 [CA]4 [B,G]2 | [DA]2 [DB]2 [Dd]2 [Ec]2 | [DB]2 E4 D2 | %4
w: By~S.~E.~S.~Shankland,~1920 * * *||||
 [B,E]2 [EA]2 [EB]2 [Ec]2 | [Ec]2 [DF]4 [DG]2 | [DA]2 [B,G]2 [EB]2 [E^c]2 | z2 d6 | %8
w: ||||
 [CD]2 [B,D]2 [B,G]2 [A,F]2 | [B,G]2 [CA]4 [B,G]2 | [DA]2 [DB]2 [DB]2 [Gc]2 | [Gd]2 [Ge]6 | %12
w: ||||
 [Gd]2 [GB]2 [FA]2 [EG]2 | z2 B4 z2 | [B,^D]2 [CE]2 [CG]2 [^CA]2 | z2 G6- | G6 z2 |] %17
w: |||||
V:2
 x8 | x8 | x8 | x8 | x8 | x8 | x8 | [G^c]2 F2 E2 D2 | x8 | x8 | x8 | x8 | x8 | [FA]2 G2 D2 [B,D]2 | %14
 x8 | [CA]2 B,2 C2 B,2- | B,6 z2 |] %17
V:3
 [G,,G,]2 [G,,G,]2 [G,,D,]2 [G,,D,]2 | [G,,G,]2 [D,F,]4 [E,G,]2 | %2
 [D,F,]2 [G,,G,]2 [B,,G,]2 [E,^G,]2 | [E,^G,]2 [C,A,]4 [B,,G,]2 | %4
 [D,^G,]2 [C,A,]2 [B,,G,]2 [A,,A,]2 | z2 A,4 z2 | [D,F,]2 [E,G,]2 [E,G,]2 [A,,A,]2 | z2 A,2 z4 | %8
 [F,A,]2 [G,,G,]2 [G,,D,]2 [G,,D,]2 | [G,,G,]2 [D,F,]4 [E,G,]2 | [D,F,]2 G,2 [=F,G,]2 [E,G,]2 | %11
 [D,B,]2 [C,C]6 | z4 C2 z2 | [^D,C]2 [G,D]2 G,2 [G,,G,]2 | [G,,G,]2 [C,G,]2 [C,E,]2 [A,,E,]2 | %15
 z2 G,2 z4 | z8 |] %17
V:4
 x8 | x8 | x8 | x8 | x8 | [A,,A,]2 D,2 C,2 [B,,G,]2 | x8 | A,2 D,2- [D,-G,]2 [D,F,]2 | x8 | x8 | %10
 x8 | x8 | [G,B,]2 [G,D]2 D,^D, [E,B,]2 | x8 | x8 | [D,F,]2 G,,2- [G,,-E,]2 [G,,D,]2- | %16
 [G,,D,]6 z2 |] %17

